frontend/public/svg/hand gestures/point-left.svg

<svg width="137" height="114" viewBox="0 0 137 114" fill="none" xmlns="http://www.w3.org/2000/svg">
<g clip-path="url(#clip0)">
<path d="M117.649 31.8731C114.571 30.2519 111.46 28.5684 108.452 26.94C103.792 24.4177 98.9716 21.8095 94.1646 19.3725C88.5141 16.4319 83.4708 12.449 79.3011 7.63387L78.7445 7.00577C77.9727 6.09901 77.1523 5.2357 76.2852 4.4198C72.9235 1.37111 69.0143 0.689169 64.6599 2.39565C61.0501 3.8094 59.185 6.82069 58.95 11.6021C58.589 18.8559 60.4596 25.2099 64.5013 30.4882C64.7907 30.8863 65.0536 31.3029 65.2887 31.7353C65.3543 31.8554 65.4299 31.9814 65.5067 32.114C64.5373 32.0483 63.5988 31.9827 62.6845 31.9171C60.3545 31.7464 58.1559 31.5889 55.9532 31.5443C43.0745 31.304 28.4767 31.031 14.1738 32.1599C11.4599 32.3559 8.78857 32.9442 6.24331 33.9064C3.03119 35.1633 1.06415 37.9698 0.705138 41.8074C0.352028 45.5827 2.99515 47.6751 5.33828 49.0764L5.71773 49.3048C6.74126 49.9926 7.85795 50.5301 9.03405 50.901C9.82559 51.1071 10.6185 51.3204 11.4107 51.5343C14.6142 52.4869 17.8864 53.1917 21.1981 53.6425C26.586 54.2293 32.0878 54.5732 37.4094 54.9066C39.7342 55.0517 42.0596 55.1974 44.3824 55.3621C45.0295 55.408 45.676 55.4743 46.3514 55.5433L46.8824 55.5964C42.9444 63.4915 43.3914 65.8622 49.7395 71.4181C47.2007 74.6256 46.1953 78.1561 46.8392 81.6465C47.5611 85.5668 50.342 89.1241 54.6889 91.6884L54.6796 91.7114C54.6082 91.905 54.5205 92.0927 54.4172 92.2713C52.0695 96.0524 51.4946 100.058 52.7981 103.55C54.0609 106.932 56.9842 109.486 61.0305 110.74C64.4961 111.772 68.0784 112.362 71.6915 112.496C72.7561 112.546 73.822 112.57 74.8892 112.569C83.3927 112.569 91.8884 111.084 98.8646 109.864C105.425 108.638 111.739 106.335 117.548 103.048C122.472 100.366 126.568 96.3858 129.39 91.5394C138.432 76.235 138.608 60.4993 129.915 44.7708C126.487 38.5743 122.591 34.4768 117.649 31.8731ZM61.0936 95.3055C61.9782 94.6708 62.8969 94.0854 63.8456 93.5518C64.351 93.2545 64.8569 92.9578 65.355 92.646C66.9646 91.6326 67.5415 90.4145 67.1182 88.9193C66.5708 86.9891 64.9114 86.6602 63.7116 86.5808C63.2163 86.5487 62.7207 86.5185 62.225 86.4896C60.7364 86.401 59.1974 86.3091 57.6963 86.1312C56.789 86.0105 55.9159 85.7059 55.1306 85.236C54.3452 84.766 53.6643 84.1405 53.1295 83.3976C51.8267 81.7318 51.3126 80.0745 51.6441 78.6063C51.965 77.1801 53.0842 75.9514 54.88 75.0529C56.0224 74.5219 57.2054 74.0828 58.4177 73.7402C58.9126 73.586 59.4061 73.4317 59.8945 73.2657C60.1997 73.162 60.5127 73.0773 60.8251 72.992C61.277 72.8778 61.7217 72.7373 62.1573 72.5719C62.7399 72.316 63.2182 71.8697 63.5133 71.3059C63.8084 70.7421 63.903 70.0949 63.7812 69.4701C63.6595 68.8459 63.3287 68.2815 62.8435 67.8699C62.3583 67.4584 61.7473 67.2241 61.1113 67.2057C61.0457 67.2057 60.9798 67.2057 60.9142 67.2057C60.4817 67.2057 60.0492 67.2366 59.6284 67.2661C59.0121 67.3278 58.3919 67.3383 57.7738 67.297C57.4207 67.2635 57.065 67.2313 56.7079 67.2051C55.1968 67.1532 53.6995 66.8972 52.2572 66.4437C50.7522 65.8819 49.7684 64.881 49.5584 63.6969C49.3484 62.5129 49.9284 61.2291 51.1518 60.1816C52.3623 59.2222 53.6678 58.3891 55.0479 57.6954C55.4377 57.4827 55.8269 57.2694 56.2109 57.0515C56.6023 56.8498 57.0142 56.6905 57.4396 56.5763C57.7501 56.4798 58.0723 56.3794 58.3821 56.2482C59.5911 55.7362 61.1774 54.8075 60.9949 52.6639C60.8479 50.9384 59.5163 49.9171 57.2454 49.7878C53.0652 49.5496 48.8837 49.3363 44.7015 49.1223C39.2257 48.8427 33.5628 48.5532 27.997 48.2106C23.529 47.979 19.0754 47.5236 14.653 46.8461C12.3033 46.4615 10.035 45.3871 7.84089 44.3481C6.96205 43.9313 5.94527 42.7013 6.01353 42.3929C6.40697 41.1221 7.2259 40.0255 8.33249 39.2871C9.69025 38.608 11.1897 38.2605 12.7076 38.273C20.3723 37.9212 44.361 37.9613 60.2325 37.9882C66.4349 37.998 71.3319 38.0059 73.6218 37.9882C75.0139 38.0463 76.3994 37.7714 77.6642 37.1861C78.1565 36.8624 78.5791 36.4427 78.9067 35.952C79.2335 35.4614 79.4586 34.9099 79.5676 34.3304C79.8032 32.9718 78.9336 31.7838 77.2986 31.2292C76.7637 31.0481 76.2104 30.901 75.6749 30.7521C74.7159 30.5289 73.782 30.2066 72.89 29.7905C68.4453 27.5137 65.8014 23.598 64.3174 17.0943C63.7357 14.9794 63.838 12.7347 64.609 10.6812C65.1341 9.36857 65.8685 8.54552 66.7336 8.30399C67.5743 8.06968 68.5411 8.35781 69.6077 9.16182C70.7254 10.0571 71.7381 11.0759 72.6268 12.1987C77.3505 17.8525 83.1978 22.4638 89.7966 25.7403C91.845 26.7738 93.8987 27.7981 95.957 28.8132C99.7697 30.7041 103.712 32.6587 107.536 34.6776L108.127 34.9887C111.08 36.5436 114.13 38.1503 116.584 40.3195C119.121 42.6272 121.249 45.3476 122.879 48.3655C127.026 55.8826 128.807 62.8785 128.326 69.7523C127.585 80.2806 124.248 88.3739 118.125 94.4962C116.938 95.6461 115.612 96.6431 114.179 97.4649C107.546 101.409 101.321 103.69 95.1484 104.437C86.7013 105.46 79.6877 106.175 73.0758 106.687C69.8361 106.938 66.3503 106.219 62.0997 104.426C59.7191 103.421 58.2983 101.972 58.1007 100.345C57.8993 98.6863 58.9625 96.8978 61.0936 95.3055Z" fill="black"/>
</g>
<defs>
<clipPath id="clip0">
<rect width="136.518" height="112.234" fill="white" transform="translate(0.197998 0.886963)"/>
</clipPath>
</defs>
</svg>

<svg xmlns="http://www.w3.org/2000/svg" width="137" height="114" fill="none" viewBox="0 0 137 114"><g clip-path="url(#a)"><path fill="#000" d="M117.649 31.873a921 921 0 0 1-9.197-4.933c-4.66-2.522-9.48-5.13-14.287-7.568A50.5 50.5 0 0 1 79.3 7.634l-.556-.628a32 32 0 0 0-2.46-2.586C72.924 1.37 69.015.69 64.66 2.396c-3.61 1.413-5.475 4.425-5.71 9.206-.361 7.254 1.51 13.608 5.551 18.886q.435.598.788 1.247.1.18.218.379c-.97-.066-1.908-.131-2.823-.197-2.33-.17-4.528-.328-6.73-.373-12.88-.24-27.477-.513-41.78.616a28.2 28.2 0 0 0-7.93 1.746C3.03 35.163 1.063 37.97.704 41.807c-.353 3.776 2.29 5.868 4.633 7.27l.38.228A13 13 0 0 0 9.034 50.9c.792.206 1.584.42 2.377.633a65 65 0 0 0 9.787 2.108c5.388.587 10.89.931 16.211 1.265 2.325.145 4.65.29 6.973.455.648.046 1.294.112 1.97.181l.53.053c-3.938 7.896-3.49 10.266 2.858 15.822-2.54 3.208-3.545 6.738-2.9 10.228.721 3.92 3.502 7.478 7.849 10.042l-.01.023q-.106.292-.262.56c-2.348 3.781-2.922 7.787-1.619 11.279 1.263 3.382 4.186 5.936 8.233 7.19a43 43 0 0 0 10.66 1.756q1.597.075 3.198.073c8.504 0 17-1.485 23.976-2.705a60.5 60.5 0 0 0 18.683-6.816 30.7 30.7 0 0 0 11.842-11.509c9.042-15.304 9.218-31.04.525-46.768-3.428-6.197-7.324-10.294-12.266-12.898M61.094 95.305a30 30 0 0 1 2.752-1.753c.505-.298 1.01-.594 1.509-.906 1.61-1.013 2.186-2.231 1.763-3.727-.547-1.93-2.207-2.259-3.406-2.338q-.744-.048-1.487-.091c-1.489-.089-3.028-.18-4.529-.359a6.72 6.72 0 0 1-4.566-2.733c-1.303-1.666-1.817-3.323-1.486-4.792.321-1.426 1.44-2.655 3.236-3.553a24 24 0 0 1 3.538-1.313c.495-.154.988-.308 1.477-.474.305-.104.618-.189.93-.274q.679-.172 1.332-.42a2.802 2.802 0 0 0-1.046-5.366h-.197c-.432 0-.865.03-1.286.06q-.925.093-1.854.031a50 50 0 0 0-1.066-.092 16.8 16.8 0 0 1-4.45-.761c-1.506-.562-2.49-1.563-2.7-2.747s.37-2.468 1.594-3.515a22.7 22.7 0 0 1 3.896-2.487q.586-.318 1.163-.644a6.2 6.2 0 0 1 1.229-.475c.31-.096.632-.197.942-.328 1.21-.512 2.795-1.44 2.613-3.584-.147-1.726-1.479-2.747-3.75-2.876-4.18-.238-8.361-.452-12.543-.666-5.476-.28-11.14-.569-16.705-.911a134 134 0 0 1-13.344-1.365c-2.35-.384-4.618-1.459-6.812-2.498-.879-.417-1.896-1.647-1.827-1.955a5.8 5.8 0 0 1 2.318-3.106 9.6 9.6 0 0 1 4.376-1.014c7.664-.352 31.653-.312 47.525-.285 6.202.01 11.099.018 13.389 0a8.76 8.76 0 0 0 4.042-.802 4.4 4.4 0 0 0 1.904-2.856c.235-1.358-.634-2.546-2.27-3.1-.534-.182-1.088-.329-1.623-.478a14.2 14.2 0 0 1-2.785-.961c-4.445-2.277-7.089-6.193-8.573-12.697a10.4 10.4 0 0 1 .292-6.413c.525-1.312 1.26-2.135 2.125-2.377.84-.234 1.807.054 2.874.858a19 19 0 0 1 3.019 3.037 53.2 53.2 0 0 0 17.17 13.541 757 757 0 0 0 6.16 3.073c3.813 1.891 7.755 3.846 11.579 5.865l.591.31c2.953 1.556 6.003 3.162 8.457 5.331a30.4 30.4 0 0 1 6.295 8.046c4.147 7.518 5.928 14.514 5.447 21.387-.741 10.529-4.078 18.622-10.201 24.744a20 20 0 0 1-3.946 2.969c-6.633 3.944-12.858 6.225-19.03 6.972-8.448 1.023-15.461 1.738-22.073 2.25-3.24.251-6.726-.468-10.976-2.261-2.38-1.005-3.802-2.454-4-4.081-.2-1.659.862-3.447 2.994-5.04"/></g><defs><clipPath id="a"><path fill="#fff" d="M.198.887h136.518v112.234H.198z"/></clipPath></defs></svg>
